X: 25
T:Mrs. Wilson's Hornpipe (#329)
M:2/4
L:1/16
S:Wilson's Companion to the Ballroom 1816
R:Hornpipe
K:G
d2|gfge decd|Bcdc BcAB|GFGA BcdB|AGFE D2d2|
gfge decd|Bcdc BcAB|GFGA BcAB|G2B2 G2:|
|:dc|BcAB G2A2|BcAB G2A2|BcdB edcB|AGAB A2d2|
BcAB G2A2|BcAB G2A2|BcdB AGAB|G2B2 G2:||

